resources/icons/20px/forward-ten.svg

<svg width="20" height="20" viewBox="0 0 20 20" fill="none" xmlns="http://www.w3.org/2000/svg">
<path d="M9.75399 20C8.57934 20.0076 7.41587 19.7716 6.33699 19.307C5.30299 18.8638 4.36238 18.2286 3.56499 17.435C2.77141 16.6376 2.13619 15.697 1.69299 14.663C1.22837 13.5841 0.992403 12.4206 0.999994 11.246C0.999994 10.0307 1.23099 8.89199 1.69299 7.82999C2.13619 6.79599 2.77141 5.85538 3.56499 5.05799C4.36238 4.26441 5.30299 3.62919 6.33699 3.18599C7.41587 2.72137 8.57934 2.4854 9.75399 2.49299H9.89899L9.07299 1.66599C8.98108 1.57875 8.90862 1.47308 8.86037 1.3559C8.81212 1.23872 8.78916 1.11266 8.79299 0.985995C8.80099 0.725995 8.89433 0.498661 9.07299 0.303995C9.25525 0.115795 9.50409 0.00663706 9.76599 -5.17338e-06C9.89482 -0.00570563 10.0234 0.0163451 10.1429 0.0646537C10.2625 0.112962 10.3703 0.1864 10.459 0.279995L12.963 2.78499C13.0556 2.87232 13.1293 2.97773 13.1795 3.0947C13.2298 3.21167 13.2555 3.3377 13.255 3.46499C13.255 3.72499 13.1577 3.95199 12.963 4.14599L10.46 6.65099C10.3713 6.74459 10.2635 6.81803 10.1439 6.86634C10.0244 6.91464 9.89582 6.9367 9.76699 6.93099C9.50495 6.92409 9.25609 6.81456 9.07399 6.62599C8.90017 6.4415 8.80047 6.19939 8.79399 5.94599C8.79002 5.81916 8.81291 5.69292 8.86117 5.57555C8.90942 5.45818 8.98195 5.35235 9.07399 5.26499L9.89999 4.43799H9.75499C7.85766 4.43799 6.24866 5.09866 4.92799 6.41999C3.60599 7.73999 2.94499 9.34866 2.94499 11.246C2.94499 13.1433 3.60566 14.7523 4.92699 16.073C6.24833 17.3943 7.85733 18.055 9.75399 18.055C11.6507 18.055 13.2593 17.3943 14.58 16.073C15.9007 14.7517 16.5613 13.1427 16.562 11.246C16.5588 11.1175 16.582 10.9897 16.6302 10.8705C16.6783 10.7513 16.7504 10.6432 16.842 10.553C16.9322 10.4614 17.0403 10.3893 17.1595 10.3412C17.2787 10.293 17.4065 10.2698 17.535 10.273C17.8103 10.273 18.041 10.3663 18.227 10.553C18.3186 10.6432 18.3907 10.7513 18.4388 10.8705C18.487 10.9897 18.5102 11.1175 18.507 11.246C18.5146 12.4206 18.2786 13.5841 17.814 14.663C17.3708 15.697 16.7356 16.6376 15.942 17.435C15.1446 18.2286 14.204 18.8638 13.17 19.307C12.0914 19.7715 10.9283 20.0074 9.75399 20Z" fill="black"/>
<path d="M11.5 9.5V12.5H12.5V9.5H11.5ZM11 8H13C13.2652 8 13.5196 8.10535 13.7071 8.29289C13.8946 8.48043 14 8.73478 14 9V13C14 13.2652 13.8946 13.5196 13.7071 13.7071C13.5196 13.8946 13.2652 14 13 14H11C10.7348 14 10.4804 13.8946 10.2929 13.7071C10.1054 13.5196 9.99999 13.2652 9.99999 13V9C9.99999 8.73478 10.1054 8.48043 10.2929 8.29289C10.4804 8.10535 10.7348 8 11 8ZM8.99999 9V13.25C8.99999 13.4489 8.92098 13.6397 8.78032 13.7803C8.63967 13.921 8.44891 14 8.24999 14C8.05108 14 7.86032 13.921 7.71966 13.7803C7.57901 13.6397 7.49999 13.4489 7.49999 13.25V9.5H6.74999C6.55108 9.5 6.36032 9.42098 6.21966 9.28032C6.07901 9.13967 5.99999 8.94891 5.99999 8.75C5.99999 8.55108 6.07901 8.36032 6.21966 8.21967C6.36032 8.07901 6.55108 8 6.74999 8H7.99999C8.26521 8 8.51956 8.10535 8.7071 8.29289C8.89464 8.48043 8.99999 8.73478 8.99999 9Z" fill="black"/>
</svg>

<svg xmlns="http://www.w3.org/2000/svg" viewBox="0 0 20 20">
  <path d="M9.754 20a8.5 8.5 0 0 1-3.417-.693 8.9 8.9 0 0 1-2.772-1.872 8.9 8.9 0 0 1-1.872-2.772A8.5 8.5 0 0 1 1 11.246a8.5 8.5 0 0 1 .693-3.416 8.9 8.9 0 0 1 1.872-2.772 8.9 8.9 0 0 1 2.772-1.872 8.5 8.5 0 0 1 3.417-.693h.145l-.826-.827a.9.9 0 0 1-.28-.68q.012-.39.28-.682a1 1 0 0 1 1.07-.24.9.9 0 0 1 .316.216l2.504 2.505a.93.93 0 0 1 .292.68q0 .39-.292.681L10.46 6.651a.9.9 0 0 1-.693.28 1 1 0 0 1-.906-1.355.9.9 0 0 1 .213-.311l.826-.827h-.145q-2.846 0-4.827 1.982-1.983 1.98-1.983 4.826t1.982 4.827q1.981 1.982 4.827 1.982t4.826-1.982 1.982-4.827a.94.94 0 0 1 .28-.693.94.94 0 0 1 .693-.28q.413 0 .692.28a.94.94 0 0 1 .28.693 8.5 8.5 0 0 1-.693 3.417 8.9 8.9 0 0 1-1.872 2.772 8.9 8.9 0 0 1-2.772 1.872A8.5 8.5 0 0 1 9.754 20"/>
  <path d="M11.5 9.5v3h1v-3zM11 8h2a1 1 0 0 1 1 1v4a1 1 0 0 1-1 1h-2a1 1 0 0 1-1-1V9a1 1 0 0 1 1-1M9 9v4.25a.75.75 0 1 1-1.5 0V9.5h-.75a.75.75 0 0 1 0-1.5H8a1 1 0 0 1 1 1"/>
</svg>
